**kern	**kern	**dynam
*part1	*part1	*part1
*staff2	*staff1	*
*I"Piano	*	*
*clefF4	*clefF4	*
*k[f#c#]	*k[f#c#]	*
=1	=1	=1
4FFF# 4FF#	4G 4e 4g	.
4FFF# 4FF#	4F# 4d 4f#	.
4FFF# 4FF#	4E 4c# 4e	.
=	=	=
4.FFF# 4.FF#	4.F# 4.d 4.f#	.
8FFF# 8FF#	8E 8c# 8e	.
4FFF# 4FF#	4D 4B 4d	.
=	=	=
4FFF# 4FF#	4G 4e 4g	.
4FFF# 4FF#	4F# 4d 4f#	.
4FFF# 4FF#	4E 4c# 4e	.
=	=	=
4.FFF# 4.FF#	4.F# 4.d 4.f#	.
8BBB 8BB	8E 8c# 8e	.
4BBB 4BB	4D 4B 4d	.
=	=	=
4BBB 4BB	4F# 4B 4d 4f#	.
4BBB 4BB	4F# 4B 4d 4f#	.
!	!LO:TX:b:i:t=cresc.	!
4BBB 4BB	4F# 4B 4d 4f#	p
=	=	=
2.BBB-X 2.BB-X	2.Fn 2.B-X 2.d 2.fn	.
=	=	=
4BBB-X 4BB-X	4Fn 4B-X 4d 4fn	f
4BBB- 4BB-	4F 4B- 4d 4f	.
4BBB- 4BB-	4F 4B- 4d 4f	.
=	=	=
2.AAA 2.AA	2.Fn 2.A 2.d 2.fn	>
=	=	=
*-	*-	*-
!!!system-decoration: {(s1,s2)}
